Bloom-Colors/scalable/status/weather-severe-alert-symbolic.svg

<svg width="16" height="16" version="1.1" xmlns="http://www.w3.org/2000/svg">
<path class="warning" d="m7 6v4l0.25 2h1.5l0.25-2v-4zm0 7v2h2v-2z" fill="#ff9800"/>
<path d="m8 0c-2.07 0-3.83 1.27-4.59 3.06-1.93 0.29-3.41 1.94-3.41 3.94 0 2.21 1.79 4 4 4h2v-6h4v6h2.5c1.93 0 3.5-1.57 3.5-3.5 0-1.8-1.35-3.27-3.09-3.47-0.46-2.29-2.48-4.03-4.91-4.03z" fill="#666"/>
</svg>

<svg xmlns="http://www.w3.org/2000/svg" width="16" height="16" version="1.1">
 <path style="fill:#4285f4" class="warning" d="M 7,6 V 10 L 7.25,12 H 8.75 L 9,10 V 6 Z M 7,13 V 15 H 9 V 13 Z"/>
 <path style="fill:#444444" d="M 8,0 C 5.93,0 4.17,1.27 3.41,3.06 1.48,3.35 0,5 0,7 0,9.21 1.79,11 4,11 H 6 V 5 H 10 V 11 H 12.5 C 14.43,11 16,9.43 16,7.5 16,5.7 14.65,4.23 12.91,4.03 12.45,1.74 10.43,0 8,0 Z"/>
</svg>
